X:1
T:Valentia, CM
T:Valentia, CM
T:Arranged from Maximilian Eberwein (1775-1831)
T:Public Domain Courtesy of the Cyber Hymnal™
C:Arranged from Maximilian Eberwein (1775-1831)
Z:Public Domain
Z:Courtesy of the Cyber Hymnal™
%%score ( 1 2 ) ( 3 4 )
L:1/8
Q:1/4=100
M:3/4
K:Eb
V:1 treble 
V:2 treble 
V:3 bass 
V:4 bass 
V:1
 [GB]2 | [GB][EG] [GB]2 [Ge]2 | [Ae][Ec] [Ae]2 (dc) | [GB]3 [EG] [FA][DF] | [EG]4 [Gc]2 | %5
 [Gc][EG] [Gc]2 [Fc]2 | [Fd][FB] [Ee]2 B2 | ([Bd]/[Ac]/) ([GB]/[FA]/) [EG]2 [DF]2 | E4 |] %9
V:2
 x2 | x6 | x4 A2 | x6 | x6 | x6 | x4 B2 | x6 | E4 |] %9
V:3
 [E,E]2 | [E,E][E,B,] [E,E]2 [E,B,]2 | [A,,C][A,,A,] [A,,C]2 [A,,E]2 | %3
 [B,,E]3 [B,,B,] [B,,B,][B,,B,] | [E,B,]4 [C,E]2 | [C,E][C,C] [C,E]2 [F,=A,]2 | %6
 B,[A,B,] [G,B,]2 [G,,E]2 | [A,,E][A,,C] [B,,B,]2 [B,,A,]2 | [E,G,]4 |] %9
V:4
 x2 | x6 | x6 | x6 | x6 | x6 | B, x5 | x6 | x4 |] %9

